libs/common/icons/src/icons/MspSubscriptionOutlined.svg

<svg width="24" height="24" viewBox="0 0 24 24" fill="none" xmlns="http://www.w3.org/2000/svg">
<path d="M11.1627 20.4C11.0186 20.4 10.8805 20.3427 10.7786 20.2409C10.6767 20.139 10.6195 20.0008 10.6195 19.8568V17.6851H5.88639C5.59835 17.6848 5.32219 17.5702 5.11851 17.3666C4.91484 17.1629 4.80028 16.8867 4.79999 16.5987V4.68638C4.79999 4.39824 4.91445 4.12191 5.11819 3.91817C5.32193 3.71444 5.59826 3.59998 5.88639 3.59998H17.7987C18.0866 3.60027 18.3625 3.71467 18.5662 3.91811C18.7698 4.12154 18.8845 4.39741 18.8851 4.68526V16.5987C18.8848 16.8867 18.7703 17.1629 18.5666 17.3666C18.3629 17.5702 18.0867 17.6848 17.7987 17.6851H15.9865V19.8557C15.9865 19.9526 15.9605 20.0477 15.9113 20.1312C15.862 20.2147 15.7913 20.2835 15.7066 20.3305C15.6218 20.3774 15.5259 20.4009 15.4291 20.3983C15.3322 20.3958 15.2377 20.3673 15.1555 20.316L13.303 19.159L11.4505 20.3171C11.3643 20.3712 11.2645 20.3999 11.1627 20.4ZM17.7998 4.68638H5.88639V16.5987H11.1616C11.3057 16.5987 11.4438 16.6559 11.5457 16.7578C11.6476 16.8597 11.7048 16.9978 11.7048 17.1419V18.8768L13.0141 18.0581C13.1004 18.0041 13.2001 17.9755 13.3019 17.9755C13.4037 17.9755 13.5034 18.0041 13.5897 18.0581L14.9001 18.8768V17.1419C14.9001 16.9978 14.9574 16.8597 15.0592 16.7578C15.1611 16.6559 15.2993 16.5987 15.4433 16.5987H17.7953L17.7998 4.68638Z" fill="currentColor"/>
<path d="M11.1638 20.3998C11.0711 20.3996 10.98 20.3753 10.8995 20.3292C10.8134 20.2801 10.742 20.209 10.6924 20.1232C10.6428 20.0374 10.6169 19.94 10.6172 19.8409V14.904C10.6165 14.7927 10.6489 14.6838 10.7103 14.591C10.7718 14.4982 10.8595 14.4259 10.9622 14.3832C11.064 14.3418 11.1761 14.3327 11.2833 14.3572C11.3905 14.3816 11.4875 14.4384 11.5614 14.5198C11.7835 14.7648 12.0546 14.9605 12.3571 15.0942C12.6596 15.2279 12.9868 15.2966 13.3176 15.296C13.6481 15.2965 13.9751 15.2276 14.2774 15.0939C14.5797 14.9603 14.8506 14.7647 15.0726 14.5198C15.1466 14.4386 15.2437 14.382 15.3509 14.3578C15.458 14.3335 15.5701 14.3428 15.6718 14.3843C15.7741 14.4271 15.8615 14.4994 15.9227 14.5919C15.9839 14.6844 16.0162 14.793 16.0156 14.904V19.8387C16.0163 19.9378 15.9906 20.0354 15.9412 20.1214C15.8919 20.2074 15.8205 20.2787 15.7345 20.3281C15.6496 20.3767 15.553 20.401 15.4553 20.3984C15.3575 20.3958 15.2623 20.3665 15.1801 20.3136L13.3164 19.1208L11.4539 20.3147C11.3673 20.3702 11.2666 20.3998 11.1638 20.3998ZM11.7104 16.024V18.8296L13.0275 17.9851C13.1138 17.9296 13.2143 17.9 13.317 17.9C13.4197 17.9 13.5202 17.9296 13.6065 17.9851L14.9236 18.824V16.024C14.4288 16.2857 13.8773 16.4219 13.3176 16.4204C12.7574 16.4221 12.2055 16.2859 11.7104 16.024Z" fill="currentColor"/>
<path d="M13.3176 9.51123C14.1862 9.52128 15.0155 9.87549 15.6233 10.4961C16.2312 11.1168 16.568 11.9532 16.56 12.822C16.568 13.6907 16.2312 14.5271 15.6233 15.1478C15.0155 15.7684 14.1862 16.1226 13.3176 16.1327C12.4489 16.1226 11.6196 15.7684 11.0118 15.1478C10.4039 14.5271 10.0671 13.6907 10.0752 12.822C10.0671 11.9532 10.4039 11.1168 11.0118 10.4961C11.6196 9.87549 12.4489 9.52128 13.3176 9.51123ZM13.3176 15.0127C13.8923 15.0059 14.4408 14.7714 14.8429 14.3607C15.245 13.9501 15.4677 13.3967 15.4624 12.822C15.4677 12.2472 15.245 11.6938 14.8429 11.2832C14.4408 10.8725 13.8923 10.638 13.3176 10.6312C12.7427 10.6377 12.1938 10.8721 11.7915 11.2828C11.3892 11.6935 11.1663 12.247 11.1716 12.822C11.1663 13.3969 11.3892 13.9504 11.7915 14.3611C12.1938 14.7718 12.7427 15.0062 13.3176 15.0127Z" fill="currentColor"/>
</svg>

<svg xmlns="http://www.w3.org/2000/svg" width="24" height="24" fill="none" viewBox="0 0 24 24">
  <path fill="currentColor" d="M11.163 20.4a.543.543 0 0 1-.543-.543v-2.172H5.886A1.088 1.088 0 0 1 4.8 16.6V4.686A1.086 1.086 0 0 1 5.886 3.6H17.8a1.088 1.088 0 0 1 1.086 1.085V16.6a1.088 1.088 0 0 1-1.086 1.086h-1.813v2.17a.543.543 0 0 1-.83.461l-1.853-1.157-1.853 1.158a.542.542 0 0 1-.287.083ZM17.8 4.686H5.886V16.6h5.276a.543.543 0 0 1 .543.543v1.735l1.31-.819a.542.542 0 0 1 .575 0l1.31.819v-1.735a.543.543 0 0 1 .543-.543h2.352L17.8 4.686Z"/>
  <path fill="currentColor" d="M11.164 20.4a.534.534 0 0 1-.264-.07.56.56 0 0 1-.283-.49v-4.936a.56.56 0 0 1 .345-.52.536.536 0 0 1 .6.136 2.364 2.364 0 0 0 1.756.776 2.364 2.364 0 0 0 1.755-.776.536.536 0 0 1 .85.072.56.56 0 0 1 .093.312v4.935a.56.56 0 0 1-.281.49.533.533 0 0 1-.555-.015l-1.864-1.193-1.862 1.194a.538.538 0 0 1-.29.085Zm.546-4.376v2.806l1.317-.845a.535.535 0 0 1 .58 0l1.317.839v-2.8a3.416 3.416 0 0 1-1.606.396 3.415 3.415 0 0 1-1.608-.396Z"/>
  <path fill="currentColor" d="M13.318 9.511a3.28 3.28 0 0 1 3.242 3.311 3.28 3.28 0 0 1-3.242 3.31 3.28 3.28 0 0 1-3.243-3.31 3.28 3.28 0 0 1 3.243-3.31Zm0 5.502a2.17 2.17 0 0 0 2.144-2.191 2.17 2.17 0 0 0-2.144-2.19 2.17 2.17 0 0 0-2.146 2.19 2.17 2.17 0 0 0 2.146 2.19Z"/>
</svg>
